src/img/Union1.svg

<svg width="40.000000" height="37.000000" viewBox="0 0 40 37" fill="none" xmlns="http://www.w3.org/2000/svg" xmlns:xlink="http://www.w3.org/1999/xlink">
	<desc>
			Created with Pixso.
	</desc>
	<defs/>
	<path id="Union" d="M22.4941 0.687988C23.2534 1.13867 23.8843 1.78711 24.3228 2.56787L39.3325 29.2964C39.77 30.0767 40 30.9614 40 31.8618L40 31.8633C39.9995 32.7646 39.769 33.6494 39.3311 34.4302C38.8931 35.2104 38.2632 35.8589 37.5049 36.3096C36.7466 36.7607 35.8857 36.999 35.0098 37L4.99023 37C4.11426 36.999 3.25342 36.7607 2.49512 36.3096C1.73682 35.8589 1.10693 35.2104 0.668945 34.4302C0.230957 33.6494 0.000488281 32.7646 0 31.8633L0 31.8618C0 30.9614 0.22998 30.0767 0.66748 29.2964L15.6704 2.56787C16.1089 1.78711 16.7397 1.13867 17.499 0.687988C18.2583 0.237305 19.1196 0 19.9966 0C20.8735 0 21.7349 0.237305 22.4941 0.687988ZM36.8218 35.0942C37.3726 34.7676 37.8286 34.2959 38.1436 33.728C38.4658 33.1631 38.6353 32.52 38.6353 31.8657C38.6353 31.2109 38.4658 30.5679 38.1436 30.0034L23.1338 3.27441C22.8154 2.70947 22.3584 2.24072 21.8086 1.91455C21.2588 1.58887 20.6348 1.41699 20 1.41699C19.3652 1.41699 18.7412 1.58887 18.1914 1.91455C17.6416 2.24072 17.1846 2.70947 16.8662 3.27441L1.85645 30.0034C1.53955 30.5688 1.37305 31.2095 1.37305 31.8618L1.37305 31.8638C1.37354 32.5171 1.54053 33.1582 1.8584 33.7241C2.17578 34.2896 2.63232 34.7593 3.18164 35.0864C3.73145 35.4131 4.35547 35.5854 4.99023 35.5864L35.0098 35.5864C35.6455 35.5908 36.271 35.4209 36.8218 35.0942ZM22.8335 14.4551C22.0562 14.9893 21.1416 15.2744 20.2065 15.2744C18.9531 15.2725 17.7515 14.7598 16.8652 13.8481C15.979 12.9365 15.48 11.7012 15.478 10.4121C15.478 9.4502 15.7554 8.51025 16.2749 7.71045C16.7949 6.91113 17.5332 6.2876 18.397 5.91992C19.2612 5.55176 20.2119 5.45557 21.1289 5.64307C22.0464 5.83057 22.8887 6.29395 23.5498 6.97363C24.2114 7.65381 24.6616 8.52002 24.8442 9.46338C24.9048 9.77734 24.9351 10.0952 24.9351 10.4121C24.9351 11.0474 24.814 11.6802 24.5752 12.2729C24.2173 13.1611 23.6113 13.9204 22.8335 14.4551ZM22.0698 7.54443C21.5186 7.16553 20.8701 6.96338 20.2065 6.96338C19.3169 6.96338 18.4639 7.32666 17.835 7.97314C17.2061 8.62012 16.8525 9.49756 16.8525 10.4121C16.8525 11.0942 17.0493 11.7607 17.418 12.3281C17.7866 12.8955 18.3105 13.3374 18.9233 13.5981C19.5361 13.8594 20.2104 13.9277 20.8608 13.7944C21.5112 13.6616 22.1089 13.333 22.5781 12.8506C23.0474 12.3687 23.3667 11.7539 23.4961 11.085C23.5391 10.8623 23.5605 10.6367 23.5605 10.4121C23.5605 9.96143 23.4746 9.5127 23.3052 9.09229C23.0513 8.46191 22.6216 7.92334 22.0698 7.54443ZM20.9639 9.43652C20.6748 9.19727 20.3076 9.08105 19.938 9.11182L19.938 9.12598C19.7559 9.15283 19.5703 9.10449 19.4229 8.99121C19.2754 8.87793 19.1772 8.70898 19.1509 8.52148C19.146 8.4873 19.1436 8.45312 19.1436 8.41895C19.1436 8.26611 19.1919 8.11572 19.2817 7.9917C19.3921 7.83984 19.5562 7.73975 19.7388 7.7124C20.4399 7.63086 21.1455 7.82324 21.7158 8.25146C22.2856 8.6792 22.6792 9.31152 22.8174 10.0234C22.834 10.085 22.8423 10.1479 22.8423 10.2104C22.8423 10.3325 22.8115 10.4531 22.752 10.5605C22.6616 10.7236 22.5122 10.8433 22.3364 10.8926C22.1606 10.9424 21.9727 10.918 21.814 10.8252C21.6558 10.7324 21.5396 10.5786 21.4912 10.3979C21.4414 10.02 21.2524 9.67578 20.9639 9.43652ZM18.4678 16.644C18.9873 17.4438 19.2646 18.3838 19.2646 19.3457C19.2627 20.6348 18.7642 21.8701 17.8774 22.7817C16.9912 23.6934 15.7896 24.2061 14.5361 24.208C13.6011 24.208 12.687 23.9229 11.9092 23.3887C11.1318 22.854 10.5259 22.0947 10.168 21.2065C9.9292 20.6138 9.80762 19.981 9.80762 19.3457C9.80762 19.0288 9.83789 18.7109 9.89893 18.397C10.0811 17.4536 10.5312 16.5874 11.1929 15.9072C11.854 15.2275 12.6968 14.7642 13.6138 14.5767C14.5308 14.3892 15.4814 14.4854 16.3457 14.8535C17.2095 15.2212 17.9482 15.8447 18.4678 16.644ZM21.9517 22.0469C21.4321 21.2476 21.1548 20.3071 21.1548 19.3457C21.1567 18.0566 21.6558 16.8208 22.542 15.9097C23.4282 14.998 24.6299 14.4849 25.8833 14.4834C26.8184 14.4834 27.7329 14.7686 28.5103 15.3027C29.2876 15.8369 29.894 16.5962 30.252 17.4849C30.4907 18.0776 30.6118 18.71 30.6118 19.3457C30.6118 19.6626 30.5815 19.9805 30.521 20.2939C30.3384 21.2373 29.8882 22.104 29.2266 22.7837C28.5654 23.4639 27.7231 23.9268 26.8057 24.1147C25.8887 24.3022 24.938 24.2061 24.0737 23.8379C23.21 23.4697 22.4712 22.8467 21.9517 22.0469ZM27.7466 16.478C27.1953 16.0991 26.5469 15.8965 25.8833 15.8965C24.9937 15.8965 24.1406 16.2603 23.5117 16.9067C22.8828 17.5537 22.5293 18.4307 22.5293 19.3457C22.5293 20.0278 22.7261 20.6943 23.0947 21.2617C23.4634 21.8286 23.9868 22.271 24.6001 22.5317C25.2129 22.793 25.8872 22.8613 26.5376 22.728C27.188 22.5952 27.7856 22.2666 28.2549 21.7842C28.7236 21.3018 29.0435 20.6875 29.1729 20.0186C29.2158 19.7959 29.2373 19.5703 29.2373 19.3457C29.2373 18.895 29.1514 18.4463 28.9819 18.0259C28.728 17.3955 28.2983 16.8569 27.7466 16.478ZM12.6729 22.2134C13.2246 22.5923 13.873 22.7944 14.5361 22.7944C15.4253 22.7925 16.2773 22.4287 16.9058 21.7822C17.5342 21.1357 17.8882 20.2598 17.8901 19.3457C17.8901 18.6636 17.6934 17.9966 17.3247 17.4297C16.9561 16.8623 16.4326 16.4204 15.8198 16.1592C15.207 15.8984 14.5327 15.8301 13.8818 15.9629C13.2314 16.0962 12.6338 16.4243 12.1646 16.9067C11.6958 17.3892 11.3765 18.0039 11.2466 18.6729C11.2036 18.8955 11.1826 19.1206 11.1826 19.3457C11.1826 19.7964 11.2681 20.2451 11.4375 20.6655C11.6914 21.2954 12.1216 21.8345 12.6729 22.2134ZM26.5303 18.1182C26.2397 17.8784 25.8696 17.7637 25.4985 17.7979C25.3184 17.8218 25.1357 17.7715 24.9917 17.6577C24.8472 17.5435 24.7529 17.3755 24.729 17.1899C24.7246 17.1592 24.7227 17.1279 24.7227 17.0972C24.7227 16.9448 24.7705 16.7959 24.8604 16.6729C24.9683 16.5249 25.1284 16.4263 25.3062 16.3984C26.0073 16.3169 26.7129 16.5093 27.2832 16.9375C27.8535 17.3652 28.2466 17.9976 28.3853 18.7095C28.4014 18.771 28.4097 18.834 28.4097 18.897C28.4097 19.0186 28.3789 19.1392 28.3198 19.2466C28.2295 19.4097 28.0801 19.5293 27.9038 19.5786C27.728 19.6284 27.54 19.6045 27.3818 19.5117C27.2231 19.4185 27.1069 19.2651 27.0586 19.084C27.0103 18.7041 26.8213 18.3579 26.5303 18.1182ZM16.2388 17.1636C16.8086 17.5913 17.2021 18.2236 17.3403 18.9355C17.3569 18.9971 17.3647 19.0601 17.3647 19.123C17.3647 19.2446 17.3345 19.3652 17.2749 19.4727C17.1846 19.6357 17.0352 19.7554 16.8594 19.8047C16.6836 19.8545 16.4956 19.8306 16.3369 19.7378C16.1787 19.645 16.0625 19.4912 16.0142 19.3101C15.9658 18.9302 15.7764 18.584 15.4858 18.3442C15.1948 18.1045 14.8252 17.9897 14.4541 18.0239C14.2734 18.0479 14.0913 17.9976 13.9468 17.8838C13.8027 17.7695 13.708 17.6016 13.6841 17.416C13.6802 17.3853 13.6782 17.354 13.6782 17.3232C13.6782 17.1709 13.7261 17.022 13.8154 16.8989C13.9238 16.751 14.0835 16.6523 14.2617 16.6245C14.9629 16.543 15.6685 16.7354 16.2388 17.1636ZM7.06396 25.2886C7.84131 24.7544 8.75586 24.4692 9.69092 24.4692C10.9443 24.4707 12.146 24.9839 13.0322 25.895C13.9185 26.8066 14.4175 28.0425 14.4194 29.3315C14.4194 30.293 14.1421 31.2329 13.6226 32.0327C13.1025 32.8325 12.3643 33.4556 11.5005 33.8237C10.6362 34.1914 9.68555 34.2881 8.76855 34.1001C7.85107 33.9126 7.00879 33.4497 6.34766 32.7695C5.68604 32.0894 5.23584 31.2231 5.05322 30.2798C4.99268 29.9663 4.9624 29.6484 4.9624 29.3315C4.9624 28.6958 5.0835 28.0635 5.32227 27.4707C5.68018 26.582 6.28613 25.8228 7.06396 25.2886ZM17.5796 25.2886C18.3574 24.7544 19.2715 24.4692 20.2065 24.4692C21.46 24.4707 22.6616 24.9839 23.5479 25.895C24.4346 26.8066 24.9331 28.0425 24.9351 29.3315C24.9351 30.293 24.6577 31.2329 24.1382 32.0327C23.6187 32.8325 22.8799 33.4556 22.0161 33.8237C21.1519 34.1914 20.2012 34.2881 19.2842 34.1001C18.3667 33.9126 17.5244 33.4497 16.8633 32.7695C16.2017 32.0894 15.7515 31.2231 15.5693 30.2798C15.5083 29.9663 15.478 29.6484 15.478 29.3315C15.478 28.6958 15.5996 28.0635 15.8384 27.4707C16.1963 26.582 16.8022 25.8228 17.5796 25.2886ZM27.6816 25.2886C28.459 24.7544 29.3735 24.4692 30.3086 24.4692C31.562 24.4707 32.7637 24.9839 33.6499 25.895C34.5361 26.8066 35.0352 28.0425 35.0366 29.3315C35.0366 30.293 34.7593 31.2329 34.2397 32.0327C33.7202 32.8325 32.9819 33.4556 32.1182 33.8237C31.2539 34.1914 30.3032 34.2881 29.3862 34.1001C28.4688 33.9126 27.6265 33.4497 26.9648 32.7695C26.3037 32.0894 25.8535 31.2231 25.6709 30.2798C25.6104 29.9663 25.5801 29.6484 25.5801 29.3315C25.5801 28.6958 25.7012 28.0635 25.9399 27.4707C26.2979 26.582 26.9038 25.8228 27.6816 25.2886ZM7.82764 32.1992C8.37891 32.5781 9.02734 32.7803 9.69092 32.7803C10.5796 32.7783 11.4316 32.4146 12.0605 31.7681C12.689 31.1216 13.043 30.2456 13.0449 29.3315C13.0449 28.6494 12.8481 27.9824 12.4795 27.4155C12.1108 26.8481 11.5869 26.4062 10.9741 26.145C10.3613 25.8838 9.68701 25.8159 9.03662 25.9487C8.38623 26.082 7.78857 26.4102 7.31934 26.8926C6.8501 27.375 6.53076 27.9897 6.40137 28.6587C6.3584 28.8813 6.33691 29.1064 6.33691 29.3315C6.33691 29.7822 6.42285 30.231 6.59229 30.6514C6.84619 31.2812 7.27588 31.8198 7.82764 32.1992ZM18.3433 32.1992C18.895 32.5781 19.5435 32.7803 20.2065 32.7803C21.0957 32.7783 21.9478 32.4146 22.5762 31.7681C23.2046 31.1216 23.5586 30.2456 23.5605 29.3315C23.5605 28.6494 23.3638 27.9824 22.9951 27.4155C22.6265 26.8481 22.103 26.4062 21.4902 26.145C20.8774 25.8838 20.2026 25.8159 19.5522 25.9487C18.9019 26.082 18.3042 26.4102 17.835 26.8926C17.3662 27.375 17.0464 27.9897 16.917 28.6587C16.874 28.8813 16.8525 29.1064 16.8525 29.3315C16.8525 29.7822 16.9385 30.231 17.1079 30.6514C17.3618 31.2812 17.792 31.8198 18.3433 32.1992ZM28.4453 32.1992C28.9966 32.5781 29.645 32.7803 30.3086 32.7803C31.1973 32.7783 32.0493 32.4146 32.6777 31.7681C33.3066 31.1216 33.6606 30.2456 33.6621 29.3315C33.6621 28.6494 33.4658 27.9824 33.0972 27.4155C32.7285 26.8481 32.2046 26.4062 31.5918 26.145C30.979 25.8838 30.3047 25.8159 29.6543 25.9487C29.0034 26.082 28.4062 26.4102 27.937 26.8926C27.4678 27.375 27.1484 27.9897 27.019 28.6587C26.9761 28.8813 26.9546 29.1064 26.9546 29.3315C26.9546 29.7822 27.0405 30.231 27.21 30.6514C27.4639 31.2812 27.8936 31.8198 28.4453 32.1992Z" fill="#3A4D6B" fill-opacity="1.000000" fill-rule="evenodd"/>
</svg>

<svg width="40" height="37" fill="none" xmlns="http://www.w3.org/2000/svg"><path d="M22.494.688c.76.45 1.39 1.1 1.829 1.88l15.01 26.728c.437.78.667 1.665.667 2.566v.001c0 .902-.231 1.786-.669 2.567a5.07 5.07 0 0 1-1.826 1.88 4.89 4.89 0 0 1-2.495.69H4.99a4.89 4.89 0 0 1-2.495-.69A5.07 5.07 0 0 1 .67 34.43 5.254 5.254 0 0 1 0 31.863v-.001c0-.9.23-1.785.667-2.566L15.67 2.568A5.069 5.069 0 0 1 17.5.688 4.89 4.89 0 0 1 19.997 0a4.89 4.89 0 0 1 2.497.688Zm14.328 34.406a3.635 3.635 0 0 0 1.322-1.366 3.761 3.761 0 0 0 .491-1.862c0-.655-.17-1.298-.491-1.863L23.134 3.274a3.678 3.678 0 0 0-1.325-1.36A3.548 3.548 0 0 0 20 1.418c-.635 0-1.259.172-1.809.498a3.678 3.678 0 0 0-1.325 1.36L1.856 30.002a3.802 3.802 0 0 0-.483 1.859v.002c0 .653.168 1.294.485 1.86a3.678 3.678 0 0 0 1.324 1.362 3.55 3.55 0 0 0 1.808.5h30.02a3.503 3.503 0 0 0 1.812-.492ZM22.833 14.455a4.636 4.636 0 0 1-2.627.82 4.67 4.67 0 0 1-3.34-1.427 4.962 4.962 0 0 1-.59-6.138 4.762 4.762 0 0 1 2.121-1.79 4.608 4.608 0 0 1 2.732-.277c.917.188 1.76.65 2.42 1.33a4.906 4.906 0 0 1 1.295 2.49 5.007 5.007 0 0 1-.269 2.81 4.839 4.839 0 0 1-1.741 2.182Zm-.763-6.91a3.287 3.287 0 0 0-1.864-.582c-.89 0-1.742.364-2.371 1.01a3.5 3.5 0 0 0-.983 2.44c0 .681.197 1.348.566 1.915a3.37 3.37 0 0 0 1.505 1.27c.613.261 1.287.33 1.938.196a3.325 3.325 0 0 0 1.717-.943 3.476 3.476 0 0 0 .983-2.439c0-.45-.086-.9-.256-1.32a3.428 3.428 0 0 0-1.235-1.548Zm-1.106 1.892a1.423 1.423 0 0 0-1.026-.325v.014a.682.682 0 0 1-.515-.135.718.718 0 0 1-.28-.572.73.73 0 0 1 .139-.427.692.692 0 0 1 .457-.28 2.759 2.759 0 0 1 1.977.54c.57.427.963 1.06 1.101 1.771a.719.719 0 0 1-.065.537.69.69 0 0 1-.416.333.67.67 0 0 1-.522-.068.706.706 0 0 1-.323-.427 1.504 1.504 0 0 0-.527-.961Zm-2.496 7.207a4.962 4.962 0 0 1-.59 6.138 4.669 4.669 0 0 1-3.342 1.426 4.633 4.633 0 0 1-2.627-.82 4.84 4.84 0 0 1-1.741-2.182 4.983 4.983 0 0 1-.27-2.809 4.902 4.902 0 0 1 1.295-2.49 4.69 4.69 0 0 1 2.42-1.33 4.608 4.608 0 0 1 2.733.277 4.76 4.76 0 0 1 2.122 1.79Zm3.484 5.403a4.96 4.96 0 0 1-.797-2.701 4.94 4.94 0 0 1 1.387-3.436 4.667 4.667 0 0 1 3.341-1.427c.935 0 1.85.286 2.627.82a4.837 4.837 0 0 1 1.742 2.182 4.983 4.983 0 0 1 .269 2.809 4.904 4.904 0 0 1-1.294 2.49 4.69 4.69 0 0 1-2.421 1.33 4.608 4.608 0 0 1-2.732-.276 4.761 4.761 0 0 1-2.122-1.791Zm5.795-5.569a3.288 3.288 0 0 0-1.864-.582 3.31 3.31 0 0 0-2.371 1.01 3.5 3.5 0 0 0-.983 2.44c0 .682.197 1.348.566 1.916a3.372 3.372 0 0 0 1.505 1.27c.613.261 1.287.33 1.938.196a3.326 3.326 0 0 0 1.717-.944 3.483 3.483 0 0 0 .982-2.438c0-.451-.086-.9-.255-1.32a3.428 3.428 0 0 0-1.235-1.548Zm-15.074 5.735a3.29 3.29 0 0 0 1.863.581 3.314 3.314 0 0 0 2.37-1.012 3.517 3.517 0 0 0 .419-4.352 3.376 3.376 0 0 0-1.505-1.27 3.273 3.273 0 0 0-1.938-.197 3.329 3.329 0 0 0-1.717.944 3.488 3.488 0 0 0-.982 2.439c0 .45.085.9.255 1.32.253.63.684 1.168 1.235 1.547Zm13.857-4.095c-.29-.24-.66-.354-1.032-.32a.674.674 0 0 1-.506-.14.711.711 0 0 1-.27-.56.72.72 0 0 1 .138-.425.684.684 0 0 1 .446-.275 2.759 2.759 0 0 1 1.977.54c.57.427.964 1.06 1.102 1.771a.74.74 0 0 1-.065.538.689.689 0 0 1-.416.332.67.67 0 0 1-.522-.067.705.705 0 0 1-.323-.428 1.494 1.494 0 0 0-.529-.966Zm-10.291-.954c.57.427.963 1.06 1.101 1.771a.72.72 0 0 1-.065.538.69.69 0 0 1-.416.332.671.671 0 0 1-.522-.067.705.705 0 0 1-.323-.428 1.497 1.497 0 0 0-.528-.966 1.417 1.417 0 0 0-1.032-.32.675.675 0 0 1-.507-.14.713.713 0 0 1-.269-.56c0-.153.048-.302.137-.425a.685.685 0 0 1 .447-.274 2.759 2.759 0 0 1 1.977.539Zm-9.175 8.125a4.637 4.637 0 0 1 2.627-.82 4.67 4.67 0 0 1 3.341 1.426 4.962 4.962 0 0 1 .59 6.138 4.763 4.763 0 0 1-2.121 1.79 4.607 4.607 0 0 1-2.732.277 4.685 4.685 0 0 1-2.421-1.33 4.906 4.906 0 0 1-1.295-2.49 5.004 5.004 0 0 1 .27-2.81 4.833 4.833 0 0 1 1.741-2.181Zm10.516 0a4.638 4.638 0 0 1 2.627-.82 4.67 4.67 0 0 1 3.34 1.426 4.962 4.962 0 0 1 .59 6.138 4.76 4.76 0 0 1-2.12 1.79 4.607 4.607 0 0 1-2.733.277 4.685 4.685 0 0 1-2.42-1.33 4.902 4.902 0 0 1-1.295-2.49 4.967 4.967 0 0 1 .27-2.81 4.835 4.835 0 0 1 1.74-2.181Zm10.102 0a4.637 4.637 0 0 1 2.627-.82 4.67 4.67 0 0 1 3.34 1.426 4.94 4.94 0 0 1 1.388 3.436 4.96 4.96 0 0 1-.797 2.702 4.76 4.76 0 0 1-2.122 1.79 4.607 4.607 0 0 1-2.732.277 4.69 4.69 0 0 1-2.421-1.33 4.909 4.909 0 0 1-1.294-2.49 5.007 5.007 0 0 1 .269-2.81 4.834 4.834 0 0 1 1.742-2.181Zm-19.854 6.91c.55.38 1.2.581 1.863.581a3.316 3.316 0 0 0 2.37-1.012 3.517 3.517 0 0 0 .419-4.353 3.378 3.378 0 0 0-1.506-1.27 3.268 3.268 0 0 0-1.937-.196 3.33 3.33 0 0 0-1.718.944 3.48 3.48 0 0 0-.982 2.438c0 .451.086.9.255 1.32.254.63.684 1.169 1.236 1.548Zm10.515 0a3.29 3.29 0 0 0 1.863.581 3.314 3.314 0 0 0 2.37-1.012 3.517 3.517 0 0 0 .419-4.353 3.376 3.376 0 0 0-1.505-1.27 3.27 3.27 0 0 0-1.938-.196 3.33 3.33 0 0 0-1.717.944 3.483 3.483 0 0 0-.983 2.438c0 .451.087.9.256 1.32.254.63.684 1.169 1.235 1.548Zm10.102 0c.552.38 1.2.581 1.864.581a3.314 3.314 0 0 0 2.369-1.012 3.517 3.517 0 0 0 .42-4.353 3.378 3.378 0 0 0-1.506-1.27 3.268 3.268 0 0 0-1.938-.196 3.327 3.327 0 0 0-1.717.944 3.48 3.48 0 0 0-.982 2.438c0 .451.086.9.255 1.32.254.63.684 1.169 1.235 1.548Z" fill="#3A4D6B" fill-rule="evenodd"/></svg>
